src/cart/components/img/cod.svg

<svg height="23" viewBox="0 0 34 23" width="34" xmlns="http://www.w3.org/2000/svg"><g fill="none" fill-rule="evenodd" transform="translate(1 1)"><g stroke="#020303" stroke-width="1.4"><path d="m26 18h.9478673c1.12891 0 2.0521327-.9232227 2.0521327-2.0521327v-.9478673" stroke-linecap="round"/><path d="m5 2h-.94816688c-1.12831858 0-2.05183312.92322275-2.05183312 2.0521327v.9478673" stroke-linecap="round"/><path d="m26 2h.9478673c1.12891 0 2.0521327.92322275 2.0521327 2.0521327v.9478673" stroke-linecap="round"/><path d="m5 18h-.94816688c-1.12831858 0-2.05183312-.9232227-2.05183312-2.0521327v-.9478673" stroke-linecap="round"/><path d="m29.8221845 21h-27.6433626c-1.19759726 0-2.1788219-.9733974-2.1788219-2.1636606v-16.67267881c0-1.19026317.98122464-2.16366059 2.1788219-2.16366059h27.6433626c1.1975972 0 2.1778155.97339742 2.1778155 2.16366059v16.67267881c0 1.1902632-.9802183 2.1636606-2.1778155 2.1636606z"/></g><path d="m15.5833812 7.41849437c-.2561711-.71230982-.9473307-1.21122308-1.7399541-1.21122308h-1.8434271v-1.20727129h7v1.20727129h-2.7023536c.2200057.28749259.3857635.61153922.4892365.95830863.0442021.14720411.1717853.25291445.3274971.25291445h1.88562v1.20727129h-1.8846154c-.1557118 0-.2842996.10669828-.3285017.25390239-.3797359 1.26062045-1.5641504 2.16459195-2.9434558 2.16459195h-.2923364l2.5416188 3.2137918-.9694317.7419482-3.0499426-3.8559573c-.0472158-.0612527-.0733352-.1343608-.0733352-.2104327v-1.09662126h1.8434271c.7926234 0 1.483783-.49891326 1.7399541-1.21122308h-3.5833812v-1.20727129z" fill="#231f20"/></g></svg>

<?xml version="1.0" encoding="UTF-8"?>
<svg width="34px" height="23px" viewBox="0 0 34 23" version="1.1" xmlns="http://www.w3.org/2000/svg" xmlns:xlink="http://www.w3.org/1999/xlink">
    <!-- Generator: Sketch 48.2 (47327) - http://www.bohemiancoding.com/sketch -->
    <title>Page 1</title>
    <desc>Created with Sketch.</desc>
    <defs></defs>
    <g id="5-Select-coupon-Copy-5" stroke="none" stroke-width="1" fill="none" fill-rule="evenodd" transform="translate(-37.000000, -801.000000)">
        <g id="Payment-menthod" transform="translate(16.000000, 150.000000)">
            <g id="Page-1" transform="translate(22.000000, 652.000000)">
                <path d="M26,18 L26.9478673,18 C28.0767773,18 29,17.0767773 29,15.9478673 L29,15" id="Stroke-1" stroke="#020303" stroke-width="1.4" stroke-linecap="round"></path>
                <path d="M5,2 L4.05183312,2 C2.92351454,2 2,2.92322275 2,4.0521327 L2,5" id="Stroke-3" stroke="#020303" stroke-width="1.4" stroke-linecap="round"></path>
                <path d="M26,2 L26.9478673,2 C28.0767773,2 29,2.92322275 29,4.0521327 L29,5" id="Stroke-5" stroke="#020303" stroke-width="1.4" stroke-linecap="round"></path>
                <path d="M5,18 L4.05183312,18 C2.92351454,18 2,17.0767773 2,15.9478673 L2,15" id="Stroke-7" stroke="#020303" stroke-width="1.4" stroke-linecap="round"></path>
                <path d="M29.8221845,21 L2.1788219,21 C0.981224644,21 0,20.0266026 0,18.8363394 L0,2.16366059 C0,0.973397421 0.981224644,0 2.1788219,0 L29.8221845,0 C31.0197817,0 32,0.973397421 32,2.16366059 L32,18.8363394 C32,20.0266026 31.0197817,21 29.8221845,21 Z" id="Stroke-9" stroke="#020303" stroke-width="1.4"></path>
                <path d="M15.5833812,7.41849437 C15.3272101,6.70618455 14.6360505,6.20727129 13.8434271,6.20727129 L12,6.20727129 L12,5 L19,5 L19,6.20727129 L16.2976464,6.20727129 C16.5176521,6.49476388 16.6834099,6.81881051 16.7868829,7.16557992 C16.831085,7.31278403 16.9586682,7.41849437 17.11438,7.41849437 L19,7.41849437 L19,8.62576566 L17.1153846,8.62576566 C16.9596728,8.62576566 16.831085,8.73246394 16.7868829,8.87966805 C16.407147,10.1402885 15.2227325,11.04426 13.8434271,11.04426 L13.5510907,11.04426 L16.0927095,14.2580518 L15.1232778,15 L12.0733352,11.1440427 C12.0261194,11.08279 12,11.0096819 12,10.93361 L12,9.83698874 L13.8434271,9.83698874 C14.6360505,9.83698874 15.3272101,9.33807548 15.5833812,8.62576566 L12,8.62576566 L12,7.41849437 L15.5833812,7.41849437 Z" id="Fill-11" fill="#231F20"></path>
            </g>
        </g>
    </g>
</svg>
